X: 1128
T: Mother's Love is a Blessing (A57)
N: page A57
N: heptatonic
M: 3/4
L: 1/4
K: D
"D" A|F2 A|"G"G G "D"F|"A"E "D"D2-|D F A|\
"Bm"d2 "A"e|"D"d "F#m" c "Bm"B|"D"A3-|
 A B c| d2 d|"F#m"c2 "Bm"B|"D"A F2-|F G A|\
 "Bm"B2 "A"E|E2 "D"F|"A"E3-|
E "D"A G|F2 A|"G"G2 "D"F|"A"E "D"D2-|D F A|\
"D"d2 "A"e|"D"d "F#m"c "Bm"B|"D"A3-|
A "Bm"B "F#m"c|"D"d2 d|"F#m"c2 "Bm"c|"D"A2 F|\
D "A"E "D"F|"G"G "D"A "Bm"B|"D"F2 "A"E|"D"D3|D3|
